img/sponsors/sponsors-github.svg

<svg height="98" viewBox="0 0 362 98" width="362" xmlns="http://www.w3.org/2000/svg"><g><path d="m70.281 41.988h-30.267c-.781 0-1.414.633-1.414 1.415v14.798c0 .78.633 1.416 1.414 1.416h11.807v18.385s-2.651.904-9.981.904c-8.647 0-20.727-3.159-20.727-29.723 0-26.569 12.579-30.065 24.388-30.065 10.223 0 14.626 1.799 17.429 2.667.881.269 1.695-.607 1.695-1.389l3.376-14.297c0-.366-.124-.807-.54-1.105-1.138-.812-8.081-4.697-25.621-4.697-20.205 0-40.932 8.596-40.932 49.922s23.73 47.484 43.727 47.484c16.557 0 26.601-7.075 26.601-7.075.414-.229.459-.807.459-1.072v-46.153c0-.782-.633-1.415-1.414-1.415"/><path d="m226.265 5.248c0-.787-.624-1.422-1.406-1.422h-17.042c-.778 0-1.411.635-1.411 1.422 0 .004.005 32.935.005 32.935h-26.565v-32.935c0-.787-.626-1.422-1.406-1.422h-17.041c-.775 0-1.408.635-1.408 1.422v89.178c0 .787.633 1.427 1.408 1.427h17.041c.78 0 1.406-.64 1.406-1.427v-38.144h26.565s-.047 38.141-.047 38.144c0 .787.632 1.427 1.412 1.427h17.082c.781 0 1.405-.64 1.407-1.427z"/><path d="m102.44 16.951c0-6.137-4.919-11.096-10.989-11.096-6.064 0-10.988 4.959-10.988 11.096 0 6.13 4.924 11.102 10.988 11.102 6.07 0 10.989-4.972 10.989-11.102"/><path d="m101.222 75.615c0-2.286 0-41.165 0-41.165 0-.782-.631-1.421-1.41-1.421h-16.989c-.779 0-1.476.804-1.476 1.586v58.976c0 1.733 1.08 2.249 2.477 2.249h15.306c1.68 0 2.092-.825 2.092-2.277 0-3.161 0-15.545 0-17.948"/><path d="m291.032 33.164h-16.911c-.775 0-1.407.639-1.407 1.425v43.727s-4.297 3.143-10.395 3.143c-6.097 0-7.715-2.767-7.715-8.737 0-5.978 0-38.133 0-38.133 0-.786-.63-1.425-1.407-1.425h-17.164c-.774 0-1.409.639-1.409 1.425v41.02c0 17.735 9.884 22.074 23.481 22.074 11.156 0 20.15-6.163 20.15-6.163s.428 3.248.622 3.633c.193.384.698.772 1.244.772l10.919-.049c.774 0 1.409-.64 1.409-1.423l-.006-59.864c0-.786-.631-1.425-1.411-1.425"/><path d="m330.584 81.405c-5.866-.178-9.845-2.84-9.845-2.84v-28.241s3.925-2.406 8.741-2.836c6.09-.545 11.958 1.294 11.958 15.822 0 15.319-2.648 18.343-10.854 18.095zm6.67-50.245c-9.605 0-16.138 4.286-16.138 4.286v-30.198c0-.787-.63-1.422-1.406-1.422h-17.091c-.777 0-1.408.635-1.408 1.422v89.178c0 .787.631 1.427 1.41 1.427h11.858c.534 0 .938-.275 1.237-.757.295-.479.72-4.112.72-4.112s6.988 6.622 20.217 6.622c15.532 0 24.439-7.878 24.439-35.365 0-27.489-14.226-31.081-23.838-31.081z"/><path d="m150.202 33.021h-12.784s-.019-16.885-.019-16.888c0-.64-.33-.959-1.069-.959h-17.42c-.678 0-1.041.298-1.041.949v17.452s-8.73 2.108-9.321 2.278c-.587.17-1.02.712-1.02 1.359v10.967c0 .789.63 1.425 1.409 1.425h8.932v26.384c0 19.597 13.746 21.522 23.021 21.522 4.239 0 9.309-1.361 10.146-1.67.506-.186.8-.711.8-1.279l.015-12.064c0-.787-.665-1.424-1.413-1.424-.746 0-2.651.303-4.613.303-6.28 0-8.407-2.92-8.407-6.699 0-3.776-.001-25.073-.001-25.073h12.785c.779 0 1.41-.636 1.41-1.425v-13.737c0-.787-.631-1.421-1.41-1.421"/></g></svg>

<?xml version="1.0" encoding="UTF-8"?>
<svg width="362px" height="98px" viewBox="0 0 362 98" version="1.1" xmlns="http://www.w3.org/2000/svg" xmlns:xlink="http://www.w3.org/1999/xlink">
    <!-- Generator: Sketch 46.2 (44496) - http://www.bohemiancoding.com/sketch -->
    <title>sponsors-github</title>
    <desc>Created with Sketch.</desc>
    <defs></defs>
    <g id="Page-1" stroke="none" stroke-width="1" fill="none" fill-rule="evenodd">
        <g id="sponsors-github" fill-rule="nonzero" fill="#000000">
            <path d="M70.281,41.988 L40.014,41.988 C39.233,41.988 38.6,42.621 38.6,43.403 L38.6,58.201 C38.6,58.981 39.233,59.617 40.014,59.617 L51.821,59.617 L51.821,78.002 C51.821,78.002 49.17,78.906 41.84,78.906 C33.193,78.906 21.113,75.747 21.113,49.183 C21.113,22.614 33.692,19.118 45.501,19.118 C55.724,19.118 60.127,20.917 62.93,21.785 C63.811,22.054 64.625,21.178 64.625,20.396 L68.001,6.099 C68.001,5.733 67.877,5.292 67.461,4.994 C66.323,4.182 59.38,0.297 41.84,0.297 C21.635,0.297 0.908,8.893 0.908,50.219 C0.908,91.545 24.638,97.703 44.635,97.703 C61.192,97.703 71.236,90.628 71.236,90.628 C71.65,90.399 71.695,89.821 71.695,89.556 L71.695,43.403 C71.695,42.621 71.062,41.988 70.281,41.988" id="Fill-11"></path>
            <path d="M226.265,5.248 C226.265,4.461 225.641,3.826 224.859,3.826 L207.817,3.826 C207.039,3.826 206.406,4.461 206.406,5.248 C206.406,5.252 206.411,38.183 206.411,38.183 L179.846,38.183 L179.846,5.248 C179.846,4.461 179.22,3.826 178.44,3.826 L161.399,3.826 C160.624,3.826 159.991,4.461 159.991,5.248 L159.991,94.426 C159.991,95.213 160.624,95.853 161.399,95.853 L178.44,95.853 C179.22,95.853 179.846,95.213 179.846,94.426 L179.846,56.282 L206.411,56.282 C206.411,56.282 206.364,94.423 206.364,94.426 C206.364,95.213 206.996,95.853 207.776,95.853 L224.858,95.853 C225.639,95.853 226.263,95.213 226.265,94.426 L226.265,5.248" id="Fill-13"></path>
            <path d="M102.44,16.951 C102.44,10.814 97.521,5.855 91.451,5.855 C85.387,5.855 80.463,10.814 80.463,16.951 C80.463,23.081 85.387,28.053 91.451,28.053 C97.521,28.053 102.44,23.081 102.44,16.951" id="Fill-14"></path>
            <path d="M101.222,75.615 C101.222,73.329 101.222,34.45 101.222,34.45 C101.222,33.668 100.591,33.029 99.812,33.029 L82.823,33.029 C82.044,33.029 81.347,33.833 81.347,34.615 C81.347,34.615 81.347,84.149 81.347,93.591 C81.347,95.324 82.427,95.84 83.824,95.84 C83.824,95.84 91.076,95.84 99.13,95.84 C100.81,95.84 101.222,95.015 101.222,93.563 C101.222,90.402 101.222,78.018 101.222,75.615" id="Fill-15"></path>
            <path d="M291.032,33.164 L274.121,33.164 C273.346,33.164 272.714,33.803 272.714,34.589 L272.714,78.316 C272.714,78.316 268.417,81.459 262.319,81.459 C256.222,81.459 254.604,78.692 254.604,72.722 C254.604,66.744 254.604,34.589 254.604,34.589 C254.604,33.803 253.974,33.164 253.197,33.164 L236.033,33.164 C235.259,33.164 234.624,33.803 234.624,34.589 C234.624,34.589 234.624,57.875 234.624,75.609 C234.624,93.344 244.508,97.683 258.105,97.683 C269.261,97.683 278.255,91.52 278.255,91.52 C278.255,91.52 278.683,94.768 278.877,95.153 C279.07,95.537 279.575,95.925 280.121,95.925 L291.04,95.876 C291.814,95.876 292.449,95.236 292.449,94.453 L292.443,34.589 C292.443,33.803 291.812,33.164 291.032,33.164" id="Fill-16"></path>
            <path d="M330.584,81.405 C324.718,81.227 320.739,78.565 320.739,78.565 L320.739,50.324 C320.739,50.324 324.664,47.918 329.48,47.488 C335.57,46.943 341.438,48.782 341.438,63.31 C341.438,78.629 338.79,81.653 330.584,81.405 Z M337.254,31.16 C327.649,31.16 321.116,35.446 321.116,35.446 L321.116,5.248 C321.116,4.461 320.486,3.826 319.71,3.826 L302.619,3.826 C301.842,3.826 301.211,4.461 301.211,5.248 L301.211,94.426 C301.211,95.213 301.842,95.853 302.621,95.853 C302.623,95.853 314.475,95.853 314.479,95.853 C315.013,95.853 315.417,95.578 315.716,95.096 C316.011,94.617 316.436,90.984 316.436,90.984 C316.436,90.984 323.424,97.606 336.653,97.606 C352.185,97.606 361.092,89.728 361.092,62.241 C361.092,34.752 346.866,31.16 337.254,31.16 L337.254,31.16 Z" id="Fill-17"></path>
            <path d="M150.202,33.021 L137.418,33.021 C137.418,33.021 137.399,16.136 137.399,16.133 C137.399,15.493 137.069,15.174 136.33,15.174 L118.91,15.174 C118.232,15.174 117.869,15.472 117.869,16.123 L117.869,33.575 C117.869,33.575 109.139,35.683 108.548,35.853 C107.961,36.023 107.528,36.565 107.528,37.212 L107.528,48.179 C107.528,48.968 108.158,49.604 108.937,49.604 L117.869,49.604 C117.869,49.604 117.869,61.075 117.869,75.988 C117.869,95.585 131.615,97.51 140.89,97.51 C145.129,97.51 150.199,96.149 151.036,95.84 C151.542,95.654 151.836,95.129 151.836,94.561 L151.851,82.497 C151.851,81.71 151.186,81.073 150.438,81.073 C149.692,81.073 147.787,81.376 145.825,81.376 C139.545,81.376 137.418,78.456 137.418,74.677 C137.418,70.901 137.417,49.604 137.417,49.604 L150.202,49.604 C150.981,49.604 151.612,48.968 151.612,48.179 L151.612,34.442 C151.612,33.655 150.981,33.021 150.202,33.021" id="Fill-18"></path>
        </g>
    </g>
</svg>
